packages/foundations/assets/icons/functional/images/maps/compass_32.svg

<svg width="32" height="32" viewBox="0 0 32 32" fill="none" xmlns="http://www.w3.org/2000/svg">
<g clip-path="url(#clip0_186_3)">
<path fill-rule="evenodd" clip-rule="evenodd" d="M16 2C19.843 2 23.328 3.558 25.86 6.073C25.872 6.085 25.889 6.088 25.901 6.1L25.928 6.141C28.442 8.674 30 12.158 30 16C30 19.842 28.442 23.326 25.928 25.858C25.917 25.87 25.913 25.887 25.901 25.899C25.889 25.911 25.872 25.915 25.86 25.926C23.328 28.442 19.843 30 16 30C12.153 30 8.664 28.439 6.132 25.919C6.122 25.91 6.111 25.908 6.102 25.899C6.093 25.89 6.091 25.879 6.082 25.87C3.561 23.337 2 19.848 2 16C2 12.152 3.561 8.663 6.082 6.13C6.091 6.121 6.093 6.109 6.102 6.1C6.111 6.091 6.123 6.089 6.132 6.08C8.665 3.56 12.153 2 16 2ZM17 4.05V5C17 5.552 16.552 6 16 6C15.447 6 15 5.552 15 5V4.05C12.443 4.263 10.112 5.276 8.26 6.844L8.93 7.514C9.321 7.905 9.321 8.538 8.93 8.928C8.736 9.124 8.479 9.221 8.223 9.221C7.967 9.221 7.712 9.124 7.516 8.928L6.846 8.258C5.277 10.11 4.263 12.442 4.05 15H5C5.552 15 6 15.447 6 16C6 16.552 5.552 17 5 17H4.05C4.263 19.558 5.277 21.889 6.846 23.741L7.516 23.07C7.906 22.679 8.54 22.679 8.93 23.07C9.321 23.461 9.321 24.093 8.93 24.484L8.26 25.155C10.112 26.723 12.442 27.737 15 27.949V27C15 26.447 15.447 26 16 26C16.552 26 17 26.447 17 27V27.949C19.558 27.737 21.889 26.723 23.741 25.154L23.072 24.484C22.682 24.093 22.682 23.46 23.072 23.07C23.463 22.679 24.096 22.679 24.487 23.07L25.156 23.739C26.724 21.887 27.737 19.557 27.949 17H27C26.447 17 26 16.552 26 16C26 15.447 26.447 15 27 15H27.949C27.737 12.442 26.723 10.112 25.155 8.26L24.487 8.928C24.291 9.124 24.035 9.221 23.779 9.221C23.524 9.221 23.268 9.124 23.072 8.928C22.682 8.538 22.682 7.905 23.072 7.514L23.741 6.846C21.889 5.277 19.558 4.263 17 4.05ZM12.9182 16.6322C13.4622 16.7202 13.8362 17.2302 13.7512 17.7762L13.2902 20.7102L15.6012 18.8442C16.0312 18.4972 16.6612 18.5642 17.0072 18.9942C17.3542 19.4232 17.2872 20.0532 16.8582 20.4002L12.5272 23.8962C12.2062 24.1562 11.7572 24.1912 11.3992 23.9842C11.0412 23.7782 10.8472 23.3712 10.9112 22.9632L11.7752 17.4652C11.8612 16.9192 12.3722 16.5472 12.9182 16.6322ZM14.9246 15.3781C15.2696 14.7801 16.0356 14.5751 16.6326 14.9201C17.2296 15.2641 17.4346 16.0301 17.0896 16.6271C16.7446 17.2241 15.9796 17.4301 15.3826 17.0851C14.7856 16.7401 14.5806 15.9751 14.9246 15.3781ZM20.5991 8.05C20.9561 8.256 21.1501 8.66 21.0881 9.067L20.2531 14.516C20.1771 15.011 19.7511 15.365 19.2661 15.365C19.2151 15.365 19.1641 15.361 19.1131 15.353C18.5671 15.27 18.1921 14.76 18.2761 14.214L18.7221 11.302L16.4241 13.144C15.9921 13.488 15.3641 13.421 15.0181 12.99C14.6731 12.558 14.7421 11.929 15.1731 11.584L19.4741 8.136C19.7961 7.878 20.2421 7.844 20.5991 8.05Z" fill="#1A1C1F"/>
</g>
<defs>
<clipPath id="clip0_186_3">
<rect width="32" height="32" fill="white"/>
</clipPath>
</defs>
</svg>

<svg xmlns="http://www.w3.org/2000/svg" width="32" height="32" fill="none"><g clip-path="url(#a)"><path fill="#1A1C1F" fill-rule="evenodd" d="M16 2c3.843 0 7.328 1.558 9.86 4.073.012.012.029.015.041.027l.027.041A13.96 13.96 0 0 1 30 16c0 3.842-1.558 7.326-4.072 9.858-.011.012-.015.029-.027.041s-.029.016-.041.027A13.95 13.95 0 0 1 16 30a13.95 13.95 0 0 1-9.868-4.081c-.01-.009-.021-.011-.03-.02s-.011-.02-.02-.029A13.95 13.95 0 0 1 2 16c0-3.848 1.561-7.337 4.082-9.87.009-.009.011-.021.02-.03s.021-.011.03-.02A13.95 13.95 0 0 1 16 2m1 2.05V5a1 1 0 0 1-2 0v-.95a11.94 11.94 0 0 0-6.74 2.794l.67.67a.999.999 0 1 1-1.414 1.414l-.67-.67A11.94 11.94 0 0 0 4.05 15H5a1 1 0 1 1 0 2h-.95a11.94 11.94 0 0 0 2.796 6.741l.67-.671a.999.999 0 1 1 1.414 1.414l-.67.671A11.94 11.94 0 0 0 15 27.949V27a1 1 0 1 1 2 0v.949a11.93 11.93 0 0 0 6.741-2.795l-.669-.67a1 1 0 0 1 1.415-1.414l.669.669A11.93 11.93 0 0 0 27.949 17H27a1 1 0 1 1 0-2h.949a11.94 11.94 0 0 0-2.794-6.74l-.668.668a.997.997 0 0 1-1.415 0 1 1 0 0 1 0-1.414l.669-.668A11.94 11.94 0 0 0 17 4.05m-4.082 12.582c.544.088.918.598.833 1.144l-.46 2.934 2.31-1.866a1 1 0 1 1 1.257 1.556l-4.33 3.496a.999.999 0 0 1-1.617-.933l.864-5.498a1 1 0 0 1 1.143-.833m2.007-1.254a1.25 1.25 0 0 1 2.165 1.25 1.25 1.25 0 0 1-2.165-1.25m5.674-7.328a1 1 0 0 1 .49 1.017l-.836 5.449a1 1 0 0 1-1.977-.302l.446-2.912-2.298 1.842a1 1 0 0 1-1.251-1.56l4.301-3.448A1 1 0 0 1 20.6 8.05" clip-rule="evenodd"/></g><defs><clipPath id="a"><path fill="#fff" d="M0 0h32v32H0z"/></clipPath></defs></svg>
